X:91 
T:Midnight Ride Quadrille fig.1 
B:RC2.298a
F:file ID roche.2/091mrq1
Z:bill@capeirish.com
N:Tune structure: A-B-A-C-A
Q:160
L:1/8
M:6/8
R:jig
K:D
P:A
A,B,A, F2F|FED E2F|DFE DFA|BAF A2F|
A,B,A, F2F|FED E2F|A2F d2F|EDE D2||"final" |EDE d3|]
P:B
e|f3-faf|e3-efe|ddc dfa|b2a f2d|
f3-faf|e3-efe|dfa Ade|f2e d2||
z|A,B,A, F2F|FED E2F|DFE DFA|BAF A2F|
A,B,A, F2F|FED E2F|A2F d2F|EDE D2||
P:C: "TRIO"
d/e/|f2A ABA|B2d d2b|a2f fed|e3-ede|
f2A ABA|B2d d2b|a2f efe|d3 d2!D.C.!||

